X:457
M:C|
L:1/8
K:A
c|AFEF A2AB|A/B/c BA BFFB|AFEF A2Aa|f2ec eAA:|
|:a|f2 (ec efac|B/B/B (BA BFFB|1 AFEF A2 (Aa|f2 (ec eAA:|2

